src/assets/IconPenrose.svg

<svg width="557" height="557" fill="none" xmlns="http://www.w3.org/2000/svg"><path fill-rule="evenodd" clip-rule="evenodd" d="M278.5 557C432.311 557 557 432.311 557 278.5 557 124.688 432.311 0 278.5 0S0 124.688 0 278.5C0 432.311 124.689 557 278.5 557z" fill="url(#paint0_linear)"/><path opacity=".668" d="M228.099 394.602l.02-184.985-40.051-23.096.02 277.467L468.42 302.12l.02-46.252-240.341 138.734z" fill="url(#paint1_linear)"/><path d="M388.302 255.869L228.12 348.371l-.019 46.231 240.321-138.733L188.05 93.999 148 117.155l240.302 138.714z" fill="url(#paint2_linear)"/><path opacity=".668" d="M188.07 186.501l160.181 92.483 40.051-23.135L148 117.154l.02 323.699 40.05 23.116V186.501z" fill="url(#paint3_linear)"/><defs><linearGradient id="paint0_linear" x1="861.609" y1="-250.65" x2="-22.058" y2="418.732" gradientUnits="userSpaceOnUse"><stop stop-color="#FFB36D"/><stop offset="1" stop-color="#F88"/></linearGradient><linearGradient id="paint1_linear" x1="557.592" y1="394.622" x2="419.206" y2="216.763" gradientUnits="userSpaceOnUse"><stop stop-color="#FFE6DC"/><stop offset="1" stop-color="#FF9168"/></linearGradient><linearGradient id="paint2_linear" x1="570.31" y1="319.451" x2="422.538" y2="119.105" gradientUnits="userSpaceOnUse"><stop stop-color="#FFCEBB"/><stop offset="1" stop-color="#FFF2ED"/></linearGradient><linearGradient id="paint3_linear" x1="464.713" y1="377.265" x2="287.681" y2="221.248" gradientUnits="userSpaceOnUse"><stop stop-color="#FFE6DC"/><stop offset="1" stop-color="#FFDBCE"/></linearGradient></defs></svg>

<svg width="557" height="557" viewBox="0 0 557 557" fill="none" xmlns="http://www.w3.org/2000/svg">
<path fill-rule="evenodd" clip-rule="evenodd" d="M278.5 557C432.311 557 557 432.311 557 278.5C557 124.688 432.311 -0.000488281 278.5 -0.000488281C124.689 -0.000488281 0 124.688 0 278.5C0 432.311 124.689 557 278.5 557Z" fill="url(#paint0_linear)"/>
<path opacity="0.668271" d="M228.099 394.602L228.119 209.617L188.068 186.521L188.088 463.988L468.42 302.12L468.44 255.868L228.099 394.602Z" fill="url(#paint1_linear)"/>
<path d="M388.302 255.869L228.12 348.371L228.101 394.602L468.422 255.869L188.05 93.9995L148 117.155L388.302 255.869Z" fill="url(#paint2_linear)"/>
<path opacity="0.668271" d="M188.07 186.501L348.251 278.984L388.302 255.849L148 117.154L148.02 440.853L188.07 463.969V186.501Z" fill="url(#paint3_linear)"/>
<defs>
<linearGradient id="paint0_linear" x1="861.609" y1="-250.65" x2="-22.0584" y2="418.732" gradientUnits="userSpaceOnUse">
<stop stop-color="#FFB36D"/>
<stop offset="1" stop-color="#FF8888"/>
</linearGradient>
<linearGradient id="paint1_linear" x1="557.592" y1="394.622" x2="419.206" y2="216.763" gradientUnits="userSpaceOnUse">
<stop stop-color="#FFE6DC"/>
<stop offset="1" stop-color="#FF9168"/>
</linearGradient>
<linearGradient id="paint2_linear" x1="570.31" y1="319.451" x2="422.538" y2="119.105" gradientUnits="userSpaceOnUse">
<stop stop-color="#FFCEBB"/>
<stop offset="1" stop-color="#FFF2ED"/>
</linearGradient>
<linearGradient id="paint3_linear" x1="464.713" y1="377.265" x2="287.681" y2="221.248" gradientUnits="userSpaceOnUse">
<stop stop-color="#FFE6DC"/>
<stop offset="1" stop-color="#FFDBCE"/>
</linearGradient>
</defs>
</svg>
